X:1
T:Title
%%score { 1 | 2 }
L:1/8
M:3/4
K:E
V:1 treble nm="Grand Piano"
V:2 bass 
V:1
 z2 z2[Q:1/4=100] G>=G | G2 [FA]2 [GB]>[Ac] | [GB]2 G2 E>F | G3 B AG |[M:2/4] [DF]4 |[M:1/4] G>=G | %6
[M:3/4] G2 [FA]2 [GB]>[Ac] | [GB]2 [EG]2 [GB]>[Ge] | d3 c B^A |[M:2/4] [DFB]4 | %10
[M:1/4] [GB]>[=G^A] |[M:3/4] [GB]2 [Ge]2 c>^B | c2 e2 [GB]>[=G^A] | [GB]3 G EG |[M:2/4] F4 | %15
[M:1/4] B>^A |[M:3/4] B2 [Ge]2 c>^B |[M:7/8] c2 e3 [Ed]>[Ec] |[M:3/4] [EB]3 [G,E] [B,EG][A,DF] | %19
[M:2/4] [G,E]4 |] %20
V:2
 z2 z2 [E,B,E]>[E,^A,E] | [E,B,E]2 [E,B,]2 [E,E]>[E,E] | [E,E]2 [E,B,E]2 [E,G,C]>[E,A,B,] | %3
 [E,B,E]3 [G,B,E] [F,B,D][E,B,E] |[M:2/4] [B,,B,]4 |[M:1/4] [E,B,E]>[E,^A,E] | %6
[M:3/4] [E,B,E]2 [E,B,]2 [E,E]>[E,E] | [E,E]2 [E,B,]2 [E,E]>[E,B,] | [F,B,F]3 [F,EF] [F,DF][F,CF] | %9
[M:2/4] B,,4 |[M:1/4] [E,E]>[E,E] |[M:3/4] [E,E]2 [E,E]2[K:treble] [A,EA]>[A,DA] | %12
 [A,EA]2[K:bass] [A,,CA]2 [E,E]>[E,E] | [E,E]3 [E,B,E] [G,B,][E,B,E] |[M:2/4] [B,D]4 | %15
[M:1/4] [E,G,E]>[E,=G,E] |[M:3/4] [E,G,E]2 [E,B,]2[K:treble] [A,E]>[A,D] | %17
[M:7/8] [A,E]2 [A,CA]3[K:bass] [A,,B,]>[A,,A,] |[M:3/4] [B,,G,]3 C, B,,B,, |[M:2/4] E,4 |] %20

